X:1
T:Keep the Household Angels Singing
T:Keep the Household Angels Singing
T:William J. Kirkpatrick, c.1903
T:Eliza E. Hewitt
T:PUBLIC DOMAIN
T:PUBLIC DOMAIN
C:William J. Kirkpatrick, c.1903
Z:Eliza E. Hewitt
Z:PUBLIC DOMAIN
%%score ( 1 2 ) ( 3 4 )
L:1/8
Q:1/4=100
M:4/4
K:C
V:1 treble nm="Treble"
V:2 treble 
V:3 bass nm="Bass"
V:4 bass 
V:1
!mf! [EG]3/2 [FA]/ [EG]3/2 [FA]/ [EG]2 [CE]2 | [EG] [Ec]2 z!p! [EG] [Ec]2 z | %2
w: 1.~Keep the house- hold an- gels|sing- ing, sing- ing;|
w: 2.~Joy- ful be our voic- es|sing- ing, sing- ing;|
w: 3.~Words of truth and kind- ness|sing- ing, sing- ing;|
!mf! [EG]3/2 [FA]/ [EG]3/2 [FA]/ [EG]2 [CE]2 | [B,D] [FG]2 z!p! [B,D] [FG]2 z | %4
w: Keep the pleas- ant mus- ic|ring- ing, ring- ing;|
w: Hearts with grate- ful mus- ic|ring- ing, ring- ing;|
w: Help to one an- oth- er|bring- ing, bring- ing;|
!mf! [EG]3/2 [FA]/ [EG]3/2 [CE]/ [EG]3/2 [EG]/ [Gc]2 | %5
w: Gen- tle love and cheer- ful- ness|
w: Dai- ly tri- als, dai- ly care,|
w: Hav- ing char- i- ty for all,|
 [FA]3/2 [FB]/ [FA]3/2 F/ [FA]3/2 [FA]/ [Fd]2 | [Fc]3/2 [FB]/ [FA]3/2 [FG]/ [FA]2 [FB]2 | %7
w: Shall our hap- py fire- sides bless;|Keep the house- hold an- gels|
w: Pa- tience shows us how to bear;|Keep the house- hold an- gels|
w: Trust- ing God, what- e’er be- fall,|Keep the house- hold an- gels|
 [Fd] [Ec]3 z2 ||"^Refrain legato" [EG]2 | [Ge]4 [Ge]3/2 [Fd]/ [Ec]3/2 [Fd]/ | %10
w: sing- ing.|’Tis|love _ that makes the|
w: sing- ing.|||
w: sing- ing.|||
 [Ge]2 [EG]2 [FA] [Fc]3 | [^Fd]4 [Fd]3/2 [Fc]/ [FB]3/2 [Fc]/ | [Gd]2 [^Fd]2 [=Fd]2 | G2 | %14
w: home so hap- py,|Love _ that makes the|home so bright;|With|
w: ||||
w: ||||
 [Ge]3/2 [Af]/ [Ge]3/2 [Fd]/ [Ec]2 [EG]3/2 [EG]/ | [FA]3/2 [F^G]/ [FA]3/2 [FB]/ [Ac]3 [FA] | %16
w: all her sis- ter an- gels Ar-|rayed in heav’n- ly light, ’Tis|
w: ||
w: ||
 [EG]2 z2 [Ec]3/2 [FB]/ [Gc]3/2 [Ad]/ | [Ge]2 [Fd]2 [Ec]4 |] %18
w: love, love that makes the|home so bright.|
w: ||
w: ||
V:2
 x8 | x8 | x8 | x8 | x8 | z2 z3/2 F/ z4 | x8 | x6 || x2 | x8 | x8 | x8 | z4 z2 | G2 | x8 | x8 | %16
 z2 G2 z4 | x8 |] %18
V:3
 [C,C]3/2 [C,C]/ [C,C]3/2 [C,C]/ [C,C]2 [C,G,]2 | [C,C] [C,G,]2 z C C2 z | %2
w: ||
 [C,C]3/2 [C,C]/ [C,C]3/2 [C,C]/ [C,C]2 [E,G,]2 | G, [G,B,]2 z G, B,2 z | %4
w: ||
 [C,C]3/2 [C,C]/ [C,C]3/2 [C,G,]/ [C,C]3/2 [C,C]/ [C,E]2 | %5
w: |
 [F,C]3/2 [F,C]/ [F,C]3/2 [F,A,]/ [F,C]3/2 [F,C]/ [F,A,]2 | %6
w: |
 [G,D]3/2 [G,D]/ [G,D]3/2 [G,D]/ [G,D]2 G,2 | [C,G,] [C,G,]3 z2 || [C,G,]2 | %9
w: |||
 [C,C]2 [C,G,]2 [C,C]3/2 [C,G,]/ [C,G,]3/2 [C,G,]/ | [C,C]2 [C,C]2 [F,C] [F,A,]3 | %11
w: * ’tis love * * *||
 [D,A,]2 [D,A,]2 [D,A,]3/2 [D,A,]/ [D,D]3/2 [D,C]/ | [G,B,]2 [D,A,]2 B,2 | B,2 | %14
w: * ’tis love * * *|||
 [C,C]3/2 [C,C]/ [C,C]3/2 [C,G,]/ [C,G,]2 [C,C]3/2 [C,C]/ | %15
w: |
 [F,C]3/2 [F,B,]/ [F,C]3/2 [F,C]/ [F,C]3 [F,C] | [G,C]2 [E,C]2 [C,G,]3/2 [D,G,]/ [E,C]3/2 [F,C]/ | %17
w: |* true * * * *|
 [G,C]2 [G,B,]2 [C,G,]4 |] %18
w: |
V:4
 x8 | z4 z z2 z | x8 | G, z3 z z2 z | x8 | x8 | z4 z2 G,2 | x6 || x2 | x8 | x8 | x8 | %12
 z4 (G,3/2 F,/) | (E,3/2 D,/) | x8 | x8 | x8 | x8 |] %18

